X: 1
T: Knot Colouring
M: 4/4
L: 1/8
R: barndance
K: Emin
M:7/8
E2G ^AB GF|GFE DE DC|B,EG ^AB =AG|F^dF ^cF B2|
E2G ^AB GF|GFE DE DC|B,EG ^AB =AF|^CE=C B,D E2:|
|:eBB gf ed|cAA ag fe|dBG ed cA|BcB dB ^dB|
e2B eg ^ab|=agf ec A^A|B,CD EF GA|BcB dB e2:|
